X:69
T:Bonny Sweet Robin
T:My Robin is to the greenwood gone
Z:Jack Campin, http://www.campin.me.uk/
F:Jack Campin's Nine-Note Tunebook
% last edit 03-02-2013
S:Simpson, The British Broadside Ballad and Its Music
Q:1/4=120
L:1/4
M:3/4
K:Ddorian
D|:F> G F   |E>    F  D|c> A d|A3   :|
 |:A d  c   |B>    A  G|c> B A|F> E D|
   c> B A/G/|F/E/F/G/ A|G E2  |D3   :|

